X: 1896
T: Around The World For Sport
R: jig
M: 6/8
K: Eminor
|:D|G2 G GFG|A2 A AGA|B2 B BAG|B2 E E2 D|
G2 G GFG|A2 A ABc|dcB cBA|1 G2 E E2:|2 G2 E E3||
|:e2 f gfe|fag fed|e2 f gfe|f2 B B3|
e2 f gfe|fag fed|A2 B cBA|B2 E E3:|
|:gfe B2g|gfe c2g|gfe a2g|f2d def|
gfe a2f|gfe d2B|A2B cBA|1 G2 E E3:|2 G2 E E2||

